public/img/chef_hat.svg

<svg width="16" height="16" viewBox="0 0 16 16" fill="none" xmlns="http://www.w3.org/2000/svg">
<mask id="mask0_579_66" style="mask-type:alpha" maskUnits="userSpaceOnUse" x="0" y="0" width="16" height="16">
<rect width="16" height="16" fill="#D9D9D9"/>
</mask>
<g mask="url(#mask0_579_66)">
<path d="M6.00002 9.33331H7.33335V5.99998H6.00002V9.33331ZM3.33335 8.33331C2.82224 8.07776 2.41669 7.70831 2.11669 7.22498C1.81669 6.74165 1.66669 6.21665 1.66669 5.64998C1.66669 4.81665 1.9528 4.11109 2.52502 3.53331C3.09724 2.95554 3.80002 2.66665 4.63335 2.66665C4.76669 2.66665 4.9028 2.67776 5.04169 2.69998C5.18058 2.7222 5.31669 2.74998 5.45002 2.78331C5.7278 2.32776 6.08891 1.9722 6.53335 1.71665C6.9778 1.46109 7.46669 1.33331 8.00002 1.33331C8.53335 1.33331 9.02224 1.46109 9.46669 1.71665C9.91113 1.9722 10.2722 2.32776 10.55 2.78331C10.6834 2.74998 10.8167 2.7222 10.95 2.69998C11.0834 2.67776 11.2222 2.66665 11.3667 2.66665C12.2 2.66665 12.9028 2.95554 13.475 3.53331C14.0472 4.11109 14.3334 4.81665 14.3334 5.64998C14.3334 6.21665 14.1834 6.74165 13.8834 7.22498C13.5834 7.70831 13.1778 8.07776 12.6667 8.33331V12H3.33335V8.33331ZM8.66669 9.33331H10V5.99998H8.66669V9.33331ZM4.66669 10.6666H11.3334V7.51665L12.0667 7.14998C12.3556 7.00554 12.5834 6.80276 12.75 6.54165C12.9167 6.28054 13 5.98887 13 5.66665C13 5.19998 12.8417 4.80554 12.525 4.48331C12.2084 4.16109 11.8222 3.99998 11.3667 3.99998C11.2445 3.99998 11.1334 4.01109 11.0334 4.03331C10.9334 4.05554 10.8278 4.08331 10.7167 4.11665L9.93335 4.33331L9.41669 3.46665C9.26113 3.21109 9.05835 3.01387 8.80835 2.87498C8.55835 2.73609 8.28891 2.66665 8.00002 2.66665C7.71113 2.66665 7.44169 2.73609 7.19169 2.87498C6.94169 3.01387 6.73891 3.21109 6.58335 3.46665L6.06669 4.33331L5.26669 4.11665C5.15558 4.09442 5.04724 4.06942 4.94169 4.04165C4.83613 4.01387 4.7278 3.99998 4.61669 3.99998C4.16113 3.99998 3.7778 4.16109 3.46669 4.48331C3.15558 4.80554 3.00002 5.19998 3.00002 5.66665C3.00002 5.98887 3.08335 6.28054 3.25002 6.54165C3.41669 6.80276 3.64446 7.00554 3.93335 7.14998L4.66669 7.51665V10.6666ZM3.33335 12H4.66669V13.3333H11.3334V12H12.6667V14.6666H3.33335V12Z" fill="#A3FF87"/>
</g>
</svg>

<svg xmlns="http://www.w3.org/2000/svg" width="16" height="16" fill="none"><mask id="a" width="16" height="16" x="0" y="0" maskUnits="userSpaceOnUse" style="mask-type:alpha"><path fill="#D9D9D9" d="M0 0h16v16H0z"/></mask><g mask="url(#a)"><path fill="#A3FF87" d="M6 9.333h1.333V6H6zm-2.667-1a2.97 2.97 0 0 1-1.216-1.108 2.93 2.93 0 0 1-.45-1.575q0-1.25.858-2.117.858-.866 2.108-.866.2 0 .409.033t.408.083a3 3 0 0 1 1.083-1.066A2.9 2.9 0 0 1 8 1.333a2.9 2.9 0 0 1 1.467.384q.666.382 1.083 1.066.2-.049.4-.083.2-.033.417-.033 1.25 0 2.108.866.858.867.858 2.117a2.93 2.93 0 0 1-.45 1.575q-.45.725-1.216 1.108V12H3.333zm5.334 1H10V6H8.667zm-4 1.334h6.666v-3.15l.734-.367q.433-.216.683-.608t.25-.875q0-.7-.475-1.184A1.56 1.56 0 0 0 11.367 4a1.5 1.5 0 0 0-.334.033q-.15.034-.316.084l-.784.216-.516-.866A1.63 1.63 0 0 0 8 2.667a1.64 1.64 0 0 0-1.417.8l-.516.866-.8-.216a6 6 0 0 1-.325-.075 1.535 1.535 0 0 0-1.475.442A1.64 1.64 0 0 0 3 5.666q0 .483.25.875.25.391.683.608l.734.367zM3.333 12h1.334v1.333h6.666V12h1.334v2.667H3.333z"/></g></svg>
